!!!COM: Johannes Brahms
!!!CNT: Deutscher
!!!TXO: Deutsche
!!!OTL: Strahlt zuweilen auch
!!!OPS: Op. 57
!!!ONM: No. 6
!!!LYR: Daumer
!!!ONB: Original key: E Major
!!!ENC: Ayako Kataoka        
!!!EED: Leigh VanHandel
!!!YOR: C.F. Peters, Brahms Lieder fu2r eine Singstimme mit Klavierbegleitung, Band III, ausgabe fu2r tiefere Stimme
!!!ODT: 1871/
!!NB: Vocal melody and text only encoded.
**kern	**silbe
*clefG2	*
*k[f#c#]	*
*M6/8	*
*MM[moderato]	*
!! tempo indication: sanft bewegt
=2	=2
4r	.
8r	.
{(8a	{Strahlt
8cc#)	|
8dd	zu-
=3	=3
4b	-wei-
8dd	-len
4a	auch
8cc#	ein
=4	=4
(8b	mil-
8g)	|
8f#	-des
(4f#	Licht
8e)}	|}
=5	=5
{4g	{auf
8g	mich
4f#	hin
8dd	aus
=6	=6
(8cc#	die-
8b)	|
8a	-sem
4a	An-
8g#	-ge-
=7	=7
4a}	sicht}
8r	.
4r	.
8r	.
=8	=8
{4a	{ach,
8a	es
4b-	ko2n-
8bn	-nen
=9	=9
[4.ccn	auch
4cc]	|
8cc#	wohl
=10	=10
(4dd	Huld-
8a)	|
(4b-	-ge-
8dd)	|
=11	=11
(4ee	-ba2r-
8bn)	|
(4cc#	-den
8a)	|
=12	=12
4dd	ma-
8b-}	-chen,}
{4g	{dass
8e	uns
=13	=13
(8dd	fast
8b-)	|
8g	das
4fn	Her-
8e	-ze
=14	=14
4d}	bricht.}
8r	.
4r	.
8r	.
=15	=15
4r	.
8r	.
{(8a	{Was
8cc#)	|
8dd	die
=16	=16
4bn	Lie-
8dd	-be
4a	sucht,
8cc#	um
=17	=17
(8b	froh
8g)	|
8f#	zu
4f#	wer-
8e}	-den,}
=18	=18
{4g	{das
8a	ver-
4g	-ra-
8dd	-ten
=19	=19
(8dd	die-
8ccn)	|
8b-	-se
(8b-	Bli-
8a)	|
8g	-che
=20	=20
4a}	nicht,}
8r	.
4r	.
8r	.
=21	=21
{4b-	{das
8a	ver-
4bn	-ra-
8a	-ten
=22	=22
4dd	die-
8cc#	-se
([4.ee	Bli-
=23	=23
4ee]	|
8cc#)	|
(4b	-cke
8a)	|
=24	=24
4a}	nicht.}
8r	.
4r	.
8r	.
*-	*-
